svgs/sharp-solid/court-sport.svg

<svg xmlns="http://www.w3.org/2000/svg" viewBox="0 0 640 512"><!--! Font Awesome Pro 6.6.0 by @fontawesome - https://fontawesome.com License - https://fontawesome.com/license (Commercial License) Copyright 2024 Fonticons, Inc. --><path d="M640 480l-304 0 0-113.1c54.3-7.8 96-54.4 96-110.9s-41.7-103.1-96-110.9L336 32l304 0 0 96-96 0-32 0 0 32 0 192 0 32 32 0 96 0 0 96zM304 145.1c-54.3 7.8-96 54.4-96 110.9s41.7 103.1 96 110.9L304 480 0 480l0-96 96 0 32 0 0-32 0-192 0-32-32 0L0 128 0 32l304 0 0 113.1zm0 189.3c-36.5-7.4-64-39.7-64-78.4s27.5-71 64-78.4l0 156.8zm32 0l0-156.8c36.5 7.4 64 39.7 64 78.4s-27.5 71-64 78.4zM544 160l96 0 0 192-96 0 0-192zM96 352L0 352 0 160l96 0 0 192z"/></svg>

<svg xmlns="http://www.w3.org/2000/svg" viewBox="0 0 640 512"><!--! Font Awesome Pro 6.5.2 by @fontawesome - https://fontawesome.com License - https://fontawesome.com/license (Commercial License) Copyright 2024 Fonticons, Inc. --><path d="M640 480H336V366.9c54.3-7.8 96-54.4 96-110.9s-41.7-103.1-96-110.9V32H640v96H544 512v32V352v32h32 96v96zM304 145.1c-54.3 7.8-96 54.4-96 110.9s41.7 103.1 96 110.9V480H0V384H96h32V352 160 128H96 0V32H304V145.1zm0 189.3c-36.5-7.4-64-39.7-64-78.4s27.5-71 64-78.4V334.4zm32 0V177.6c36.5 7.4 64 39.7 64 78.4s-27.5 71-64 78.4zM544 160h96V352H544V160zM96 352H0V160H96V352z"/></svg>
